X:1
T:6 Lieder, Op.10
T:Nachgefühl
T:1. Nachgefühl
T:Johanna Kinkel
T:6 Lieder, Op.10 
T:Johann Wolfgang von Goethe
T:Creative Commons copyright waiver (CC0 1.0 Universal)
C:Johanna Kinkel (originally published under the name J. Mathieux)
Z:Johann Wolfgang von Goethe
Z:Creative Commons copyright waiver (CC0 1.0 Universal)
%%score 1 { 2 | ( 3 4 ) }
L:1/8
Q:1/4=60
M:4/4
K:E
V:1 treble nm="Singstimme\nVoice"
V:2 treble nm="Pianoforte"
V:3 bass 
V:4 bass 
V:1
"^Lento ma non troppo""^Modern spelling:\n\"Trä-nen\"    v.2\n"!p!!<(! G3 A!<)!!mp! B D E F | %1
w: 1. Wenn die Re- ben wie- der|
w: 2. Trä- nen rin- nen von den|
w: 3. Und zu- letzt muss ich mir|
!>(! (G3 E) B,2!>)! z2 |!p! B,3 B,"^Modern spelling:\n\"tu-e\"    v.2\n" B,3/2 B,/ !>!=C3/2 C/ | %3
w: blü- * hen,|rüh- ret sich der Wein im|
w: Wan- * gen;|was ich tu- e, was ich|
w: sa- * gen|wenn ich mich be- denk' und|
 B,2 B,2 z4 |!mp! B,3 E!<(! G E G B!<)! |!f!!<(! (e3!<)!!>(! d/c/) B2!>)!!mf!!>(! (3cB G!>)! | %6
w: Fas- se;|wenn die Ro- sen wie- der|glü- * * hen, weiss * ich|
w: las- se,|nur ein un- be- stimmt Ver-|lan- * * gen fühl' * ich|
w: fas- se,|dass in sol- chen schö- nen|Ta- * * gen, Do- * ris|
 E3 E G3 F | E4"_(Göthe.)" !fermata!z4 :| %8
w: nicht wie mir ge-|schieht.|
w: das die Brust durch-|glüht.|
w: einst für mich ge-|glüht.|
V:2
!p! [EG]B,[EG]B, [EG]B,[EG]B, | [EG]B,[EG]B,!>(! [EG]B,[EG]B,!>)! | %2
!pp! [DF]B,[DF]B, [DF]B,!>![EF]=C | [DF]B,[DF]B, [DF]B,[DF]B, | [EG]G,B,E"_cresc." GBeg | %5
 be'g'e' bg"_dim."eB | [EG]B B,B"_" [DA]B B,B | [EG] GBe !fermata!g2 !fermata!z2 :| %8
V:3
!ped! [E,,E,]2 z (B,, G,2) z (B,,!ped-up! | E,,2) z (B,, G,2) z"_" B,, | %2
 B,,,2 z [B,,,B,,] [B,,,B,,]2 !>![A,,,A,,]2 | [B,,,B,,]4!mp! !>!A,2 G,F, | %4
!p! [E,,E,]B,,E,G,[K:treble] B,EGB | egbg eBGE |[K:bass] [B,,B,]2 z2 [B,,,B,,]2 z2 | %7
!ped! [E,,B,,][K:treble] B,EG !fermata!B2!ped-up! !fermata!z2 :| %8
V:4
 x8 | x8 | x8 | x4 B,,4 | x4[K:treble] x4 | x8 |[K:bass] x8 | x[K:treble] x7 :| %8

